X:1
T:Upside
M:4/4
L:1/4
K:C
 D D G G| A/2B/2 c/2d/2 B A/2B/2| c E F G| A3/2 G/2 G D| D D G G| A/2B/2 c/2d/2 B A/2B/2|\
 c E F G| A3 A| A F/2G/2 A3/2 B/2| A/2G/2 F/2G/2 A3/2 B/2| A/2G/2 F/2G/2 A B|\
 E3/2 D/2 D D| d d/2c/2 B A/2G/2| A/2B/2 c/2d/2 B B| E3/2 D/2 D D|\
 d d/2c/2 B A/2B/2| A/2B/2 c/2d/2 B A/2B/2| c E F G| A3/2 G/2 G A|\
